X:1
T:Ein feste Burg ist unser Gott
T:Ein feste Burg ist unser Gott
T:Composer: Martin Luther Arranger: Josef Löw 
C:Martin Luther
%%score { 1 | 2 } { ( 3 6 7 ) | ( 4 5 ) }
L:1/8
Q:1/4=112
M:4/4
K:C
V:1 treble nm="Piano" snm="Pno."
V:2 treble 
V:3 bass nm="Piano" snm="Pno."
V:6 bass 
V:7 bass 
V:4 bass 
V:5 bass 
V:1
"^Andantino religioso" z4"_marcato"!p! !>!!4!c4 |!<(! !>!c4 !>!c4!<)! |!f! !>!!1!G2 !>!A2 !>!B4 | %3
 !>!!4!c2 !>!B2 !>!A4 | !fermata!G4 !>!!4!c4 | !>!B4 !>!A4 | !>!G4 !>!A4 |!>(! z8!>)! | %8
!mf! !fermata!z8 | z8 | !>!!2!A4 !>!A4 |!f! !fermata!G4 z4 |!>(! z8 | !>!!2!A4 !>!B4!>)! | %14
!mf! !>!!fermata!c4 !>!B4 |!<(! !>!c4 !>!B4 | !>!A4 !>!A4!<)! |!f! !fermata!G4 z4 | z8 | z8 | %20
 !fermata!z4 !>!!4!c4 | !>!B4 !>!A4 | !>!G4 !>!A4 | z8 | !fermata!z8 |] %25
V:2
 z8 | z8 | z8 | z8 | !fermata!z8 | z8 | z8 | !>!!2!F2 !>!E2 !>!D4 | !fermata!C4 !>!C4 | %9
 !>!E2 !>!F2!<(! !>!G4 | z8!<)! | !fermata!z4 !>!!5!C4 | !>!!1!G4 !>!G4 | z8 | !fermata!z8 | z8 | %16
 z8 | !fermata!z4 !>!!1!A4 | !>!A4 !>!G4 | !>!A4 !>!F4 | !>!!fermata!E4 z4 | z8 | z8 | %23
!>(! !>!!1!F2 !>!E2 !>!D4!>)! |!p! !>!!fermata!C4 z4 |] %25
V:3
 z4"_marcato" [E,G,C]4 |!<(! [E,A,C]4 [F,A,C]4!<)! |!f! [D,G,B,]4 [E,G,B,]4 | [E,A,C]4 [^F,CD]4 | %4
 !fermata![E,G,B,]4 [E,A,C]4 | [E,G,B,]4 [C,F,A,]4 | [D,G,]4 [E,A,]4 |!>(! [F,A,]4 [F,G,B,]4!>)! | %8
!mf! !fermata![E,G,]4 [C,G,]4 | [E,G,]4!<(! [D,G,]4 | (A,2 C2 B,2 A,2)!<)! | %11
!f! !fermata![G,B,]4 [E,G,]4 |!>(! [=F,B,]4 [E,C]4 | [A,C]4 [G,B,F]4!>)! | %14
!mf! !fermata![G,CE]4 [B,D]4 |!<(! [A,D]4 [B,D]4 | [G,A,E]4 D4!<)! |!f! !fermata![G,B,D]4 [A,=F]4 | %18
 [A,F]4 (C2 _B,2) | E4 D2 =B,2 | !fermata![^G,B,]4 [A,C]4 | [=G,E]4 ([A,C]2 [B,D]2) | %22
 [G,CE]4 [G,^CE]4 |!>(! [F,A,D]4 [F,G,B,]4!>)! |!p! !fermata![E,G,]4 z4 |] %25
V:4
!f! C,4!p! C,4 | A,,4 F,,4 | G,,4 E,,4 | A,,4 D,4 | !fermata!G,,4 A,,4 | E,,4 F,,4 | %6
 [B,,,B,,]4 [^C,,^C,]4 | [D,,D,]4 G,,4 | !fermata![C,,C,]4 E,,4 | [C,,C,]4 [B,,,B,,]4 | %10
 [A,,,A,,]4 [D,,D,]4 | !fermata![G,,D,]4 C,4 | D,4 C,4 | [F,,F,]4 [D,,D,]4 | %14
 !fermata![C,,C,]4 G,,4 | ^F,,4 G,,4 | C,4 D,4 | !fermata![G,,D,]4 [F,,F,]4 | [D,,D,]4 [E,,C,]4 | %19
 [^C,,^C,]4 [D,,D,]4 | !fermata![E,,E,]4 [A,,E,]4 | [E,,E,]4 [F,,F,]4 | %22
 !>![C,,C,]2 !>![_B,,,_B,,]2 !>![A,,,A,,]4 | [D,,D,]4 G,,4 | !fermata![C,,C,]4 z4 |] %25
V:5
 C,,8 | x8 | x8 | x8 | x8 | x8 | x8 | x8 | x8 | x8 | x8 | x8 | x8 | x8 | x8 | x8 | x8 | x8 | x8 | %19
 x8 | x8 | x8 | x8 | x8 | x8 |] %25
V:6
 x8 | x8 | x8 | x8 | x8 | x8 | x8 | x8 | x8 | x8 | ^F,4 F,4 | x8 | x8 | x8 | x8 | x8 | %16
 x4 (A,2 C2) | x8 | x8 | A,4 A,4 | x8 | x8 | x8 | x8 | x8 |] %25
V:7
 x8 | x8 | x8 | x8 | x8 | x8 | x8 | x8 | x8 | x8 | x8 | x8 | x8 | x8 | x8 | x8 | x4 ^F,4 | x8 | %18
 x8 | x8 | x8 | x8 | x8 | x8 | x8 |] %25

